X:1
T:Title
%%score { ( 1 4 ) | ( 2 3 ) }
L:1/8
Q:1/4=100
M:4/4
K:D
V:1 treble nm="Grand Piano"
V:4 treble 
V:2 bass 
V:3 bass 
V:1
 [A,FA]2 [A,FA]2 [A,FA]2 [A,DF]2 | [EG]B[FA][EG] [EG]2 F2 | z4 F2 z2 | z2 .[EG]2 [DF]2 z2 | %4
w: Mozart * * *||||
 [A,EA]2 [Ge]2 [Fd]2 [A,FA]2 | [A,EA]2 [EGA]2 [DFA]2 [A,DF]2 | [Af][Ge][Fd][Ac] [GB]A[CEG][DF] | %7
w: |||
 z2 [CA]2 z4 |] %8
w: |
V:2
 D,2 D,2 D,2 D,2 | z G [A,,A,]2 z2 D2 | [F,A,]2 [A,C]2 .[D,A,D]2 [D,D]2 | z FG,,^G,, z2 C2 | %4
 C,2 [A,,A,]2 [D,A,]2 A,,2 | C,2 A,,2 D,2 D,2 | z4 [D,D]2 z2 | z G, .[A,,E,]2 [D,F,]4 |] %8
V:3
 x8 | A,2 z2 [D,A,]4 | x8 | [D,D]2 z2 A,,4 | x8 | x8 | [D,A,]2 [D,D]2 z FA,,B,, | G,,2 z2 z4 |] %8
V:4
 x8 | x8 | D2 E2 z D[EG][FA] | [GB]AB,-[B,DF] A,2- [A,E]2 | x8 | x8 | x8 | .[B,DE]2 z G, D4 |] %8

